build/images/icons/print.svg

<svg width="15" height="14" viewBox="0 0 15 14" xmlns="http://www.w3.org/2000/svg">
  <path fill-rule="evenodd" clip-rule="evenodd" d="M3 0.0152588H12V3.11961H3V0.0152588ZM2.25 3.89569H12.75C14.025 3.89569 15 4.90461 15 6.22395V10.8805H12V13.9848H3V10.8805H0V6.22395C0 4.90461 0.975 3.89569 2.25 3.89569ZM4.5 12.4327H10.5V8.55222H4.5V12.4327ZM12.75 7.00004C12.3 7.00004 12 6.68961 12 6.22395C12 5.7583 12.3 5.44787 12.75 5.44787C13.2 5.44787 13.5 5.7583 13.5 6.22395C13.5 6.68961 13.2 7.00004 12.75 7.00004Z"/>
</svg>

<svg width="15" height="14" xmlns="http://www.w3.org/2000/svg"><path fill-rule="evenodd" clip-rule="evenodd" d="M3 .015h9V3.12H3V.015zm-.75 3.88h10.5c1.275 0 2.25 1.01 2.25 2.329v4.656h-3v3.105H3V10.88H0V6.223c0-1.32.975-2.328 2.25-2.328zm2.25 8.538h6v-3.88h-6v3.88zM12.75 7c-.45 0-.75-.31-.75-.776s.3-.776.75-.776.75.31.75.776-.3.776-.75.776z"/></svg>
